X: 818
P: Longways for as many as will
M: 6/4
L: 1/4
K: G
d/c/ |\
g2g gdB | c2B A>B c/d/ | (BG)B AFD | G3- G2 :|
|: g/a/ |\
b>ag a>gf | g>fe d>ef | g>fe deB | A3 d3 |\

